X: 20803
T: Johnny Murphy's
R: slide
M: 12/8
K: Gmajor
|:B|d2 B g3 d2 c A3|c>AB cfe d3- dBc|
d2 B g2 B d2 c A2 B|c2 e dB/c/d G3- G2:|
|:B|d2 g gfg a2 f d3|c2 c cfe d3- dBc|
d2 g ge/f/g a2 f d2 B|c2 e d2 F G3- G2:|

